X:9
T:Swallowtail, The
T:Dancing Master, The
I:speed 350
R:jig
M:6/8
K:EDor
EF|GEE BEE|GEE BAG|FDD ADD|ded =cAF|\
GEE BEE|GEE B2c|ded =cAF|GEE E2:|*
|Bcd e2f|e2f edc|Bcd e2f|edc d3|\
Bcd efe|efe edc|ded =cAF|GEE E2:|**
<end>
<start>
